lib/radiotmp/nrk-hardware-smart-watch-expressive.svg

<svg width="24" height="24" viewBox="0 0 24 24" fill="none" xmlns="http://www.w3.org/2000/svg">
<path fill-rule="evenodd" clip-rule="evenodd" d="M22 3C22 2.44772 22.4477 2 23 2C23.5523 2 24 2.44772 24 3V11C24 11.5523 23.5523 12 23 12C22.4477 12 22 11.5523 22 11V3ZM18 5C18 4.44772 18.4477 4 19 4C19.5523 4 20 4.44772 20 5V9C20 9.55228 19.5523 10 19 10C18.4477 10 18 9.55228 18 9V5Z" fill="black"/>
<path fill-rule="evenodd" clip-rule="evenodd" d="M9 9.5C9 9.22386 9.22386 9 9.5 9C9.77614 9 10 9.22386 10 9.5V12H11.5C11.7761 12 12 12.2239 12 12.5C12 12.7761 11.7761 13 11.5 13H9.6C9.26863 13 9 12.7314 9 12.4V9.5Z" fill="black"/>
<path fill-rule="evenodd" clip-rule="evenodd" d="M4 9C4 7.34315 5.34315 6 7 6H13C14.6569 6 16 7.34315 16 9V15C16 16.6569 14.6569 18 13 18H7C5.34315 18 4 16.6569 4 15V9ZM7 8C6.44772 8 6 8.44772 6 9V15C6 15.5523 6.44772 16 7 16H13C13.5523 16 14 15.5523 14 15V9C14 8.44772 13.5523 8 13 8H7Z" fill="black"/>
<path fill-rule="evenodd" clip-rule="evenodd" d="M6 5C6 3.34315 7.34315 2 9 2H11C12.6569 2 14 3.34315 14 5V8H6V5ZM9 4C8.44772 4 8 4.44772 8 5V6H12V5C12 4.44772 11.5523 4 11 4H9Z" fill="black"/>
<path fill-rule="evenodd" clip-rule="evenodd" d="M14 19C14 20.6569 12.6569 22 11 22H9C7.34315 22 6 20.6569 6 19V16L14 16L14 19ZM11 20C11.5523 20 12 19.5523 12 19V18H8V19C8 19.5523 8.44772 20 9 20H11Z" fill="black"/>
</svg>

<svg xmlns="http://www.w3.org/2000/svg" viewBox="0 0 24 24"><path fill="#000" fill-rule="evenodd" d="M22 3a1 1 0 1 1 2 0v8a1 1 0 1 1-2 0V3Zm-4 2a1 1 0 1 1 2 0v4a1 1 0 1 1-2 0V5ZM9 9.5a.5.5 0 0 1 1 0V12h1.5a.5.5 0 0 1 0 1H9.6a.6.6 0 0 1-.6-.6V9.5Z" clip-rule="evenodd"/><path fill="#000" fill-rule="evenodd" d="M4 9a3 3 0 0 1 3-3h6a3 3 0 0 1 3 3v6a3 3 0 0 1-3 3H7a3 3 0 0 1-3-3V9Zm3-1a1 1 0 0 0-1 1v6a1 1 0 0 0 1 1h6a1 1 0 0 0 1-1V9a1 1 0 0 0-1-1H7Z" clip-rule="evenodd"/><path fill="#000" fill-rule="evenodd" d="M6 5a3 3 0 0 1 3-3h2a3 3 0 0 1 3 3v3H6V5Zm3-1a1 1 0 0 0-1 1v1h4V5a1 1 0 0 0-1-1H9ZM14 19a3 3 0 0 1-3 3H9a3 3 0 0 1-3-3v-3h8v3Zm-3 1a1 1 0 0 0 1-1v-1H8v1a1 1 0 0 0 1 1h2Z" clip-rule="evenodd"/></svg>
